src/main/resources/img/expui/window/DatabaseDiagnostics_dark.svg

<svg width="16" height="16" version="1.1" viewBox="0 0 16 16" xmlns="http://www.w3.org/2000/svg">
 <path d="m6.5 2c-1.9508-3.34e-5 -5.5 0.28974-5.5 2v8.9902c0 1.5127 3.125 2.0129 5.5 2.0098 2.375-0.0032 5.5-0.5 5.5-2v-1.0625a2.5002 2.5002 0 0 1-1 0.009766v0.95312c0 0.5-2 1.0996-4.5 1.0996s-4.5-0.59961-4.5-1.0996v-1.7012s1 0.80469 4.5 0.80469c1.8161 0 2.9553-0.21556 3.6348-0.42383a2.5002 2.5002 0 0 1-0.80664-0.85742c-0.77095 0.16631-1.7528 0.27734-2.8281 0.27734-2.5 0-4.5-0.59961-4.5-1.0996v-1.7051s1 0.80469 4.5 0.80469c0.91932 0 1.6621-0.054928 2.2637-0.13672l-0.21484-0.86328h-2.0488c-2.5 0-4.5-0.59961-4.5-1.0996v-1.7051s0.506 0.40324 2.0371 0.63867a2.5 2.5 0 0 1-0.037109-0.33398 2.5 2.5 0 0 1 0.09375-0.64453c-1.2568-0.16718-2.0938-0.46942-2.0938-0.85547 0-0.6 2.0147-1 4.5-1h3.6074l0.09375-0.53516c-1.1688-0.34891-2.6608-0.46483-3.7012-0.46484z" fill="#ced0d6"/>
 <path d="m12.949 0.50195a0.50005 0.50005 0 0 0-0.44141 0.41211l-1.0918 6.1895-0.43164-1.7246a0.50005 0.50005 0 0 0-0.48438-0.37891h-4a0.5 0.5 0 0 0-0.5 0.5 0.5 0.5 0 0 0 0.5 0.5h3.6094l0.90625 3.6211a0.50005 0.50005 0 0 0 0.97656-0.035156l1.1953-6.7715 0.34766 0.87109a0.50005 0.50005 0 0 0 0.46484 0.31445h1a0.5 0.5 0 0 0 0.5-0.5 0.5 0.5 0 0 0-0.5-0.5h-0.66211l-0.87305-2.1855a0.50005 0.50005 0 0 0-0.51562-0.3125z" color="#000000" fill="#ff6015"/>
</svg>

<svg width="16" height="16" xmlns="http://www.w3.org/2000/svg"><path d="M12.949.502a.5.5 0 0 0-.441.412l-1.092 6.19-.432-1.725A.5.5 0 0 0 10.5 5h-4a.5.5 0 0 0-.5.5.5.5 0 0 0 .5.5h3.61l.905 3.621a.5.5 0 0 0 .977-.035l1.195-6.772.348.872A.5.5 0 0 0 14 4h1a.5.5 0 0 0 .5-.5.5.5 0 0 0-.5-.5h-.662L13.465.815a.5.5 0 0 0-.516-.313zM6.499 2C4.55 2 1 2.29 1 4v8.99c0 1.513 3.126 2.013 5.5 2.01 2.376-.003 5.5-.5 5.5-2v-1.063a2.5 2.5 0 0 1-1 .01v.953c0 .5-2 1.1-4.5 1.1S2 13.4 2 12.9v-1.7s1 .804 4.5.804c1.817 0 2.956-.216 3.636-.424a2.5 2.5 0 0 1-.807-.857C8.557 10.889 7.575 11 6.5 11 4 11 2 10.4 2 9.9V8.195S3 9 6.5 9c.92 0 1.662-.055 2.264-.137L8.549 8h-2.05C4 8 2 7.4 2 6.9V5.195s.507.403 2.038.639A2.5 2.5 0 0 1 4 5.5a2.5 2.5 0 0 1 .094-.645C2.837 4.688 2 4.385 2 4c0-.6 2.015-1 4.5-1h3.607l.094-.535C9.032 2.115 7.541 2 6.5 2z" fill="#ced0d6"/></svg>
